assets/icons/sun.svg

<?xml version="1.0" encoding="UTF-8"?>
<svg width="24px" height="24px" viewBox="0 0 24 24" version="1.1" xmlns="http://www.w3.org/2000/svg" xmlns:xlink="http://www.w3.org/1999/xlink">
    <!-- Generator: Sketch 53.2 (72643) - https://sketchapp.com -->
    <title>Icon/Weather/Sun</title>
    <desc>Created with Sketch.</desc>
    <g id="Icon/Weather/Sun" stroke="none" stroke-width="1" fill="none" fill-rule="evenodd">
        <path d="M12,16.6666667 C9.42267117,16.6666667 7.33333333,14.5773288 7.33333333,12 C7.33333333,9.42267117 9.42267117,7.33333333 12,7.33333333 C14.5773288,7.33333333 16.6666667,9.42267117 16.6666667,12 C16.6666667,14.5773288 14.5773288,16.6666667 12,16.6666667 Z M12,15.3333333 C13.8409492,15.3333333 15.3333333,13.8409492 15.3333333,12 C15.3333333,10.1590508 13.8409492,8.66666667 12,8.66666667 C10.1590508,8.66666667 8.66666667,10.1590508 8.66666667,12 C8.66666667,13.8409492 10.1590508,15.3333333 12,15.3333333 Z M12,4 C12.3681898,4 12.6666667,4.29847683 12.6666667,4.66666667 L12.6666667,6 C12.6666667,6.36818983 12.3681898,6.66666667 12,6.66666667 C11.6318102,6.66666667 11.3333333,6.36818983 11.3333333,6 L11.3333333,4.66666667 C11.3333333,4.29847683 11.6318102,4 12,4 Z M12,17.3333333 C12.3681898,17.3333333 12.6666667,17.6318102 12.6666667,18 L12.6666667,19.3333333 C12.6666667,19.7015232 12.3681898,20 12,20 C11.6318102,20 11.3333333,19.7015232 11.3333333,19.3333333 L11.3333333,18 C11.3333333,17.6318102 11.6318102,17.3333333 12,17.3333333 Z M15.8047379,15.8047379 C16.0650874,15.5443883 16.4871974,15.5443883 16.7475469,15.8047379 L17.6903559,16.7475469 C17.9507055,17.0078964 17.9507055,17.4300064 17.6903559,17.6903559 C17.4300064,17.9507055 17.0078964,17.9507055 16.7475469,17.6903559 L15.8047379,16.7475469 C15.5443883,16.4871974 15.5443883,16.0650874 15.8047379,15.8047379 Z M8.27614237,15.8047379 C8.5364919,16.0650874 8.5364919,16.4871974 8.27614237,16.7475469 L7.33333333,17.6903559 C7.07298381,17.9507055 6.65087382,17.9507055 6.39052429,17.6903559 C6.13017476,17.4300064 6.13017476,17.0078964 6.39052429,16.7475469 L7.33333333,15.8047379 C7.59368286,15.5443883 8.01579285,15.5443883 8.27614237,15.8047379 Z M6.66666667,12 C6.66666667,12.3681898 6.36818983,12.6666667 6,12.6666667 L4.66666667,12.6666667 C4.29847683,12.6666667 4,12.3681898 4,12 C4,11.6318102 4.29847683,11.3333333 4.66666667,11.3333333 L6,11.3333333 C6.36818983,11.3333333 6.66666667,11.6318102 6.66666667,12 Z M15.8047379,8.3570226 C15.5443883,8.09667308 15.5443883,7.67456309 15.8047379,7.41421356 L16.7475469,6.47140452 C17.0078964,6.21105499 17.4300064,6.21105499 17.6903559,6.47140452 C17.9507055,6.73175405 17.9507055,7.15386403 17.6903559,7.41421356 L16.7475469,8.3570226 C16.4871974,8.61737213 16.0650874,8.61737213 15.8047379,8.3570226 Z M8.27614237,8.3570226 C8.01579285,8.61737213 7.59368286,8.61737213 7.33333333,8.3570226 L6.39052429,7.41421356 C6.13017476,7.15386403 6.13017476,6.73175405 6.39052429,6.47140452 C6.65087382,6.21105499 7.07298381,6.21105499 7.33333333,6.47140452 L8.27614237,7.41421356 C8.5364919,7.67456309 8.5364919,8.09667308 8.27614237,8.3570226 Z M20,12 C20,12.3681898 19.7015232,12.6666667 19.3333333,12.6666667 L18,12.6666667 C17.6318102,12.6666667 17.3333333,12.3681898 17.3333333,12 C17.3333333,11.6318102 17.6318102,11.3333333 18,11.3333333 L19.3333333,11.3333333 C19.7015232,11.3333333 20,11.6318102 20,12 Z" id="Combined-Shape" fill="#000000"></path>
    </g>
</svg>

<svg class="ucla-icon sun" width="24" height="24" viewBox="0 0 24 24" aria-labelledby="icon-sun" role="img"><title id="icon-sun">Icon Weather/Sun</title><g fill="none" fill-rule="evenodd"><path d="M12 16.667a4.667 4.667 0 1 1 0-9.334 4.667 4.667 0 0 1 0 9.334zm0-1.334a3.333 3.333 0 1 0 0-6.666 3.333 3.333 0 0 0 0 6.666zM12 4c.368 0 .667.298.667.667V6a.667.667 0 0 1-1.334 0V4.667c0-.369.299-.667.667-.667zm0 13.333c.368 0 .667.299.667.667v1.333a.667.667 0 0 1-1.334 0V18c0-.368.299-.667.667-.667zm3.805-1.528c.26-.26.682-.26.943 0l.942.943a.667.667 0 1 1-.942.942l-.943-.942a.667.667 0 0 1 0-.943zm-7.529 0c.26.26.26.682 0 .943l-.943.942a.667.667 0 1 1-.942-.942l.942-.943c.26-.26.683-.26.943 0zM6.666 12a.667.667 0 0 1-.666.667H4.667a.667.667 0 0 1 0-1.334H6c.368 0 .667.299.667.667zm9.139-3.643a.667.667 0 0 1 0-.943l.943-.943a.667.667 0 1 1 .942.943l-.942.943a.667.667 0 0 1-.943 0zm-7.529 0a.667.667 0 0 1-.943 0l-.942-.943a.667.667 0 1 1 .942-.943l.943.943c.26.26.26.683 0 .943zM20 12a.667.667 0 0 1-.667.667H18a.667.667 0 0 1 0-1.334h1.333c.369 0 .667.299.667.667z" id="Combined-Shape" fill="#000"/></g></svg>
